src/img/empty-star.svg

<svg width="23" height="23" viewBox="0 0 23 23" fill="none" xmlns="http://www.w3.org/2000/svg">
<path d="M6.5319 13.1377L5.16522 19.0557C5.1229 19.2349 5.13561 19.4227 5.20168 19.5945C5.26775 19.7664 5.38411 19.9143 5.53557 20.0191C5.68703 20.1238 5.86655 20.1804 6.05068 20.1814C6.2348 20.1825 6.41498 20.1281 6.56767 20.0252L11.562 16.6956L16.5564 20.0252C16.7126 20.1289 16.8968 20.1823 17.0843 20.1782C17.2718 20.1741 17.4536 20.1127 17.6051 20.0022C17.7567 19.8917 17.8707 19.7375 17.932 19.5602C17.9933 19.383 17.9988 19.1912 17.9478 19.0107L16.2702 13.1404L20.4308 9.39628C20.564 9.27629 20.6592 9.11988 20.7045 8.94638C20.7498 8.77289 20.7432 8.58992 20.6856 8.4201C20.6281 8.25029 20.522 8.10107 20.3805 7.99091C20.239 7.88075 20.0683 7.81448 19.8896 7.80029L14.6604 7.38386L12.3976 2.37485C12.3255 2.21356 12.2082 2.0766 12.0599 1.98049C11.9116 1.88439 11.7387 1.83325 11.562 1.83325C11.3853 1.83325 11.2124 1.88439 11.0641 1.98049C10.9159 2.0766 10.7986 2.21356 10.7264 2.37485L8.4636 7.38386L3.23445 7.79937C3.05875 7.81329 2.89079 7.87753 2.75065 7.98441C2.61052 8.09128 2.50414 8.23627 2.44424 8.40202C2.38435 8.56777 2.37347 8.74727 2.41292 8.91904C2.45237 9.09081 2.54047 9.24758 2.66668 9.37059L6.5319 13.1377ZM9.14877 9.16972C9.31249 9.15682 9.46973 9.10012 9.604 9.00555C9.73827 8.91098 9.84462 8.78203 9.91191 8.63222L11.562 4.98071L13.2121 8.63222C13.2794 8.78203 13.3858 8.91098 13.52 9.00555C13.6543 9.10012 13.8115 9.15682 13.9753 9.16972L17.6185 9.45865L14.6182 12.159C14.3577 12.3938 14.2541 12.7552 14.3495 13.0927L15.4988 17.1148L12.072 14.83C11.9216 14.729 11.7445 14.6751 11.5634 14.6751C11.3822 14.6751 11.2052 14.729 11.0548 14.83L7.4739 17.2175L8.437 13.0478C8.47231 12.8944 8.46757 12.7346 8.42323 12.5836C8.3789 12.4326 8.29646 12.2955 8.18384 12.1856L5.39728 9.46874L9.14877 9.16972Z" fill="#F3CD03"/>
</svg>

<svg width="23" height="23" fill="none" xmlns="http://www.w3.org/2000/svg"><path d="m6.532 13.138-1.367 5.918a.915.915 0 0 0 1.403.97l4.994-3.33 4.994 3.33a.918.918 0 0 0 1.392-1.015l-1.678-5.87 4.16-3.745a.918.918 0 0 0-.54-1.596l-5.23-.416-2.262-5.01a.915.915 0 0 0-1.672 0l-2.262 5.01-5.23.415a.917.917 0 0 0-.567 1.572l3.865 3.767ZM9.149 9.17a.915.915 0 0 0 .763-.538l1.65-3.651 1.65 3.651a.916.916 0 0 0 .763.538l3.644.289-3 2.7a.919.919 0 0 0-.27.934l1.15 4.022-3.427-2.285a.912.912 0 0 0-1.017 0l-3.581 2.388.963-4.17a.917.917 0 0 0-.253-.862L5.397 9.469l3.752-.3Z" fill="#F3CD03"/></svg>
